X: 63
T: Requiem / Introit
N: Derived from Ock1013a-Requiem-Introit.krn
C: Johannes Ockeghem
%%abc-version 2.0
%%abcx-abcm2ps-target-version 5.9.1 (29 Sep 2008)
%%abc-creator hum2abc beta
%%abcx-conversion-date 2019/02/17 07:26:15
%%abc-edited-by Jesse Rodin
%%abc-edited-by Chris Gage 07-02-2012
%%abcx-initial-encoding-date 2012/10/12/
%%humdrum-veritas 274337611
%%humdrum-veritas-data 4245969257
%%linebreak <none>
%%barnumbers 0
L: 1/4
M: 2/1
Q: 1/2=120
V: 1 clef=treble
V: 2 clef=treble-8
V: 3 clef=treble-8
K: C
[V:1] F8- | 
[V:2] c8 | 
[V:3] F8 | 
[V:1] F8 | 
[V:2] d8 | 
[V:3] D8 | 
[V:1] G8 | 
[V:2] B8 | 
[V:3] E8 | 
[V:1] A8 | 
[V:2] A4D4- | 
[V:3] F8- | 
[V:1] A8 | 
[V:2] D4d4- | 
[V:3] F8 | 
[V:1] G4E4 | 
[V:2] d4B4 | 
[V:3] G8 | 
[V:1] F8 | 
[V:2] c8 | 
[V:3] A8 | 
[V:1] G8- | 
[V:2] d8 | 
[V:3] B8 | 
[V:1] G4A4- | 
[V:2] e8 | 
[V:3] c8 | 
[V:1] A2F2F4- | 
[V:2] c8 | 
[V:3] F8 | 
[V:1] F4E4 | 
[V:2] B8 | 
[V:3] G8 | 
[V:1] F8 | 
[V:2] c8 | 
[V:3] F8- | 
[V:1] z8 | 
[V:2] z8 | 
[V:3] F8 | 
[V:1] A8- | 
[V:2] d8- | 
[V:3] F8- | 
[V:1] A8 | 
[V:2] d8 | 
[V:3] F8 | 
[V:1] A8- | 
[V:2] d8- | 
[V:3] F8- | 
[V:1] A4G2F2 | 
[V:2] d4c2B2 | 
[V:3] F4E2D2 | 
[V:1] G8- | 
[V:2] c8- | 
[V:3] E8- | 
[V:1] G8 | 
[V:2] c8 | 
[V:3] E8 | 
[V:1] A8 | 
[V:2] d8 | 
[V:3] D8 | 
[V:1] A8 | 
[V:2] c8- | 
[V:3] F8- | 
[V:1] c8 | 
[V:2] c4f4- | 
[V:3] F8 | 
[V:1] A8 | 
[V:2] f4e4- | 
[V:3] z4c4- | 
[V:1] G8 | 
[V:2] e2d2d4- | 
[V:3] c4_B4 | 
[V:1] z4A4 | 
[V:2] d4c4 | 
[V:3] A8 | 
[V:1] _B8 | 
[V:2] d4_B4 | 
[V:3] G8 | 
[V:1] A4F4 | 
[V:2] c4A4 | 
[V:3] z4A4 | 
[V:1] G8 | 
[V:2] G8 | 
[V:3] _B8 | 
[V:1] F4F4- | 
[V:2] z4c4 | 
[V:3] A4F4 | 
[V:1] F2D2E4 | 
[V:2] _B4G4 | 
[V:3] G8 | 
[V:1] z4F4- | 
[V:2] A4d4- | 
[V:3] F8 | 
[V:1] F4F4 | 
[V:2] d4_B4 | 
[V:3] D8 | 
[V:1] G4A4- | 
[V:2] c4d4- | 
[V:3] E4D4 | 
[V:1] A8- | 
[V:2] d4f4 | 
[V:3] F8 | 
[V:1] A4G4 | 
[V:2] e8 | 
[V:3] C8 | 
[V:1] F4G4- | 
[V:2] d8 | 
[V:3] D4E4 | 
[V:1] G2F2F4- | 
[V:2] c8 | 
[V:3] F4A4 | 
[V:1] F4E4 | 
[V:2] B8 | 
[V:3] G8 | 
[V:1] F8 | 
[V:2] c8- | 
[V:3] F8- | 
[V:1] z8 | 
[V:2] c4d4- | 
[V:3] F8- | 
[V:1] A8 | 
[V:2] d2c2A4 | 
[V:3] F8 | 
[V:1] A8- | 
[V:2] F4c4 | 
[V:3] z8 | 
[V:1] A4G2F2 | 
[V:2] d4f4- | 
[V:3] z8 | 
[V:1] G8 | 
[V:2] f4e4 | 
[V:3] z8 | 
[V:1] F8 | 
[V:2] f8 | 
[V:3] z8 | 
[V:1] z4A4- | 
[V:2] e8 | 
[V:3] c8 | 
[V:1] A4G4- | 
[V:2] d8 | 
[V:3] B8 | 
[V:1] G4A4- | 
[V:2] z4c4- | 
[V:3] c8 | 
[V:1] A4F4- | 
[V:2] c4d4 | 
[V:3] A4_B4 | 
[V:1] F2D2E4 | 
[V:2] B8 | 
[V:3] G8 | 
[V:1] F8 | 
[V:2] c8 | 
[V:3] F8- | 
[V:1] z8 | 
[V:2] d4f4- | 
[V:3] F8 | 
[V:1] A8 | 
[V:2] f2e2c4 | 
[V:3] z8 | 
[V:1] G8 | 
[V:2] d8 | 
[V:3] _B8 | 
[V:1] A8 | 
[V:2] e4c4- | 
[V:3] c8 | 
[V:1] A8 | 
[V:2] c8 | 
[V:3] A8- | 
[V:1] c8 | 
[V:2] e4f4 | 
[V:3] A8 | 
[V:1] _B4G4 | 
[V:2] g8 | 
[V:3] G8 | 
[V:1] A8 | 
[V:2] f4e4- | 
[V:3] z4c4- | 
[V:1] G8 | 
[V:2] e2c2d4 | 
[V:3] c4B4 | 
[V:1] z4A4 | 
[V:2] e8 | 
[V:3] c8 | 
[V:1] _B6A2 | 
[V:2] d8 | 
[V:3] d4_B4 | 
[V:1] G2F2F4- | 
[V:2] c8 | 
[V:3] c4A4 | 
[V:1] F4E4 | 
[V:2] B8 | 
[V:3] G8 | 
[V:1] z4F4- | 
[V:2] c4F2G2 | 
[V:3] F6E2 | 
[V:1] F4G4- | 
[V:2] A2B2c4- | 
[V:3] D4E4 | 
[V:1] G4A4- | 
[V:2] c8- | 
[V:3] C8 | 
[V:1] A4G4 | 
[V:2] c4z4 | 
[V:3] F4G4 | 
[V:1] F4G4- | 
[V:2] F4E4 | 
[V:3] A4_B4 | 
[V:1] G2F2D4 | 
[V:2] C4_B,4 | 
[V:3] c4F4 | 
[V:1] C4F4- | 
[V:2] C4c4- | 
[V:3] E4F4 | 
[V:1] F4E4 | 
[V:2] c4B4 | 
[V:3] G8 | 
[V:1] F8 ||  
[V:2] c8 ||  
[V:3] F8 ||  
[V:1]  [K:C] [K:clef=treble][M:2/1]F8 | 
[V:2]  [K:C] [K:clef=treble-8][M:2/1]c8 | 
[V:3]  [K:C] [K:clef=treble-8][M:2/1]F8 | 
[V:1] G8 | 
[V:2] d8 | 
[V:3] _B8 | 
[V:1] A8 | 
[V:2] e8 | 
[V:3] A8 | 
[V:1] A8 | 
[V:2] e8 | 
[V:3] c8 | 
[V:1] A8 | 
[V:2] e8 | 
[V:3] c8 | 
[V:1] A8- | 
[V:2] e8- | 
[V:3] c8- | 
[V:1] A8 | 
[V:2] e8 | 
[V:3] c8 | 
[V:1] A8 | 
[V:2] f8 | 
[V:3] F8 | 
[V:1] A8 | 
[V:2] f8 | 
[V:3] F8 | 
[V:1] A8 | 
[V:2] e8 | 
[V:3] A6B2 | 
[V:1] A8 | 
[V:2] e8 | 
[V:3] c8 | 
[V:1] A6G2 | 
[V:2] e6d2 | 
[V:3] c6B2 | 
[V:1] A4_B4- | 
[V:2] e4f4- | 
[V:3] c4d4 | 
[V:1] B4A4- | 
[V:2] f4e4- | 
[V:3] A8 | 
[V:1] A4G4 | 
[V:2] e4d4 | 
[V:3] _B8 | 
[V:1] A8- | 
[V:2] e4f4- | 
[V:3] A8- | 
[V:1] A8 | 
[V:2] f4e2d2 | 
[V:3] A8 | 
[V:1] z8 | 
[V:2] c6B2 | 
[V:3] z8 | 
[V:1] F8- | 
[V:2] d8- | 
[V:3] D8- | 
[V:1] F8 | 
[V:2] d8 | 
[V:3] D8 | 
[V:1] G8 | 
[V:2] e8 | 
[V:3] C8 | 
[V:1] A8 | 
[V:2] f8- | 
[V:3] F8 | 
[V:1] A8 | 
[V:2] f4e2d2 | 
[V:3] F8 | 
[V:1] A8 | 
[V:2] c8 | 
[V:3] F8 | 
[V:1] A8 | 
[V:2] f8 | 
[V:3] F8 | 
[V:1] A8 | 
[V:2] f8 | 
[V:3] F8 | 
[V:1] A8- | 
[V:2] e8 | 
[V:3] c8- | 
[V:1] A4F4 | 
[V:2] c6d2 | 
[V:3] c4A4 | 
[V:1] _B8 | 
[V:2] e8 | 
[V:3] G8 | 
[V:1] A8 | 
[V:2] f6d2 | 
[V:3] F8 | 
[V:1] G8 | 
[V:2] e4c4- | 
[V:3] E8 | 
[V:1] F4F4- | 
[V:2] c8- | 
[V:3] F4A4 | 
[V:1] F4E4 | 
[V:2] c4B4 | 
[V:3] G8 | 
[V:1] F8 | 
[V:2] c4d4- | 
[V:3] F8 | 
[V:1] z8 | 
[V:2] d4c4 | 
[V:3] z8 | 
[V:1] F8- | 
[V:2] d8 | 
[V:3] D8- | 
[V:1] F8 | 
[V:2] A8 | 
[V:3] D8 | 
[V:1] F8 | 
[V:2] z8 | 
[V:3] D8 | 
[V:1] F8 | 
[V:2] B8 | 
[V:3] D8 | 
[V:1] G8 | 
[V:2] c8 | 
[V:3] C8 | 
[V:1] F8 | 
[V:2] A4d4- | 
[V:3] D8- | 
[V:1] D8 | 
[V:2] d2cBA4 | 
[V:3] D4F4- | 
[V:1] F8 | 
[V:2] c6BA | 
[V:3] F2G2A4 | 
[V:1] G4A4- | 
[V:2] G4F4- | 
[V:3] _B4A4 | 
[V:1] A4F4- | 
[V:2] F4c4- | 
[V:3] F8 | 
[V:1] F4E4 | 
[V:2] c4B4 | 
[V:3] G8 | 
[V:1] F8 ||  
[V:2] c8 ||  
[V:3] F8 ||  



